X:1
T:Title
%%score { ( 1 3 ) | ( 2 4 ) }
L:1/8
Q:1/4=116
M:4/4
K:Bb
V:1 treble nm="Grand Piano"
V:3 treble 
V:2 bass 
V:4 bass 
V:1
 [DF]4 [B,D]2 [CE]2 | [_DG]4 [=DF]4 | A2 B2 c2 A2 | [DB]4 [DF]4 | G4 E2 G2 | F4 [=B,FG]4 | %6
w: George~C.~Stebbins * *||||||
 [CFA]2 [DFB]2 [CFA]2 [B,=EG]2 | F4- [DF-]2 [EF]2 | [B,DF]4[K:bass] [F,B,D]2 [F,CE]2 | %9
w: |||
 [_DG]4 [=DF]4 | [Fd]2 [Fc]2 [FB]2 [^FA]2 | [Gc]4 G4 | B4 A2 G2 | F4 B4 | B2 A2 G2 A2 | [DB]8 |] %16
w: |||||||
V:2
 [B,,B,]4 [B,,F,]2 [B,,F,]2 | [B,,=E,]4 [B,,F,]4 | [F,E]2 [F,G,E]2 [F,A,E]2 [F,E]2 | %3
 [B,,F,]4 [B,,B,]4 | [E,B,E]4 [E,G,B,]2 [E,B,E]2 | [D,B,]4 _D,4 | C,2 C,2 C,2 C,2 | z4 B,2 C2 | %8
 B,,4 B,,2 B,,2 | [B,,=E,]4 [B,,F,]4 | [B,,B,]2 [C,A,]2 [D,B,]2 [D,B,]2 | [E,B,]4 [E,B,E]4 | %12
 [=E,G,_D]4 [E,A,D]2 [E,B,D]2 | [F,B,D]4 [G,B,D]4 | [F,CE]2 [F,CE]2 [F,B,E]2 [F,E]2 | [B,,F,]8 |] %16
V:3
 x8 | x8 | x8 | x8 | x8 | x8 | x8 | A,4 z4 | x4[K:bass] x4 | x8 | x8 | x8 | x8 | x8 | x8 | x8 |] %16
V:4
 x8 | x8 | x8 | x8 | x8 | x8 | x8 | F,8 | x8 | x8 | x8 | x8 | x8 | x8 | x8 | x8 |] %16

